public/avatar/shoe/139.svg

<svg xmlns:xlink="http://www.w3.org/1999/xlink" height="38.3" width="36.05" xmlns="http://www.w3.org/2000/svg"><use height="22.5" transform="translate(8.4 6.15)" width="24.65" xlink:href="#a"/><defs><g id="a" fill-rule="evenodd"><path d="M-6.85-8.7h6.1L5-5.75 9.25 10.3l-10.5 1.05-8.15 2.45-5.25-.3-.75-6.15 7-7.1 1.55-8.95" fill="#1c191d" transform="translate(15.4 8.7)"/><path d="M-5.35-6.75-.85-7 3.9-4.55l3.55 13.6-8.95.9-8.1 2.4-3.75-.25-.55-4.1L-7 .85l1.65-7.6" fill="#fdfaf9" transform="translate(15.4 8.7)"/><path d="m-8.35 1.2.3-.4 6.4.7 1.3 8.7-9.3 2.9-4.4-.3-.6-5.1 6.3-6.5" fill="#1c191d" transform="translate(15.4 8.7)"/><path d="m-2.6 2.3 1.2 7.5-8.25 2.45-3.6-.2-.6-4.2L-7.8 1.6l5.2.7" fill="red" transform="translate(15.4 8.7)"/><path d="m-1.75 1.7.9-8.7L3.9-4.55l3.55 13.6-7.55.75-1.65-8.1" fill="#d4d2d4" transform="translate(15.4 8.7)"/><path d="m-2.6 2.3-7.45 5.9.4 4.05-3.6-.2-.6-4.2L-7.8 1.6l5.2.7" fill="#ff5151" transform="translate(15.4 8.7)"/><path d="m5.7 2.25 1.75 6.8-7.8.8-.65-3.8 6.7-3.8M-1.25 4.3l-.25-1.25L4.9-.7 5.25.7l-6.5 3.6" fill="#acacac" transform="translate(15.4 8.7)"/><path d="m-6.55 1.8-6.25 6.05-.45 4.2-.6-4.2L-7.8 1.6l1.25.2" fill="#fff" transform="translate(15.4 8.7)"/></g></defs></svg>

<?xml version="1.0" encoding="UTF-8" standalone="no"?>
<svg xmlns:xlink="http://www.w3.org/1999/xlink" height="38.3px" width="36.05px" xmlns="http://www.w3.org/2000/svg">
  <g transform="matrix(1.0, 0.0, 0.0, 1.0, 23.8, 14.85)">
    <use height="22.5" transform="matrix(1.0, 0.0, 0.0, 1.0, -15.4, -8.7)" width="24.65" xlink:href="#shape0"/>
  </g>
  <defs>
    <g id="shape0" transform="matrix(1.0, 0.0, 0.0, 1.0, 15.4, 8.7)">
      <path d="M-6.85 -8.7 L-0.75 -8.7 5.0 -5.75 9.25 10.3 -1.25 11.35 -9.4 13.8 -14.65 13.5 -15.4 7.35 -8.4 0.25 -6.85 -8.7" fill="#1c191d" fill-rule="evenodd" stroke="none"/>
      <path d="M-5.35 -6.75 L-0.85 -7.0 3.9 -4.55 7.45 9.05 -1.5 9.95 -9.6 12.35 -13.35 12.1 -13.9 8.0 -7.0 0.85 -5.35 -6.75" fill="#fdfaf9" fill-rule="evenodd" stroke="none"/>
      <path d="M-8.35 1.2 L-8.05 0.8 -1.65 1.5 -0.35 10.2 -9.65 13.1 -14.05 12.8 -14.65 7.7 -8.35 1.2" fill="#1c191d" fill-rule="evenodd" stroke="none"/>
      <path d="M-2.6 2.3 L-1.4 9.8 -9.65 12.25 -13.25 12.05 -13.85 7.85 -7.8 1.6 -2.6 2.3" fill="#ff0000" fill-rule="evenodd" stroke="none"/>
      <path d="M-1.75 1.7 L-0.85 -7.0 3.9 -4.55 7.45 9.05 -0.1 9.8 -1.75 1.7" fill="#d4d2d4" fill-rule="evenodd" stroke="none"/>
      <path d="M-2.6 2.3 L-10.05 8.2 -9.65 12.25 -13.25 12.05 -13.85 7.85 -7.8 1.6 -2.6 2.3" fill="#ff5151" fill-rule="evenodd" stroke="none"/>
      <path d="M5.7 2.25 L7.45 9.05 -0.35 9.85 -1.0 6.05 5.7 2.25" fill="#acacac" fill-rule="evenodd" stroke="none"/>
      <path d="M-1.25 4.3 L-1.5 3.05 4.9 -0.7 5.25 0.7 -1.25 4.3" fill="#acacac" fill-rule="evenodd" stroke="none"/>
      <path d="M-6.55 1.8 L-12.8 7.85 -13.25 12.05 -13.85 7.85 -7.8 1.6 -6.55 1.8" fill="#ffffff" fill-rule="evenodd" stroke="none"/>
    </g>
  </defs>
</svg>
